resources/svg/file-unknow-line.svg

<svg fill="currentColor" viewBox="0 0 24 24" xmlns="http://www.w3.org/2000/svg"><path d="M11 15H13V17H11V15ZM13 13.3551V14H11V12.5C11 11.9477 11.4477 11.5 12 11.5C12.8284 11.5 13.5 10.8284 13.5 10C13.5 9.17157 12.8284 8.5 12 8.5C11.2723 8.5 10.6656 9.01823 10.5288 9.70577L8.56731 9.31346C8.88637 7.70919 10.302 6.5 12 6.5C13.933 6.5 15.5 8.067 15.5 10C15.5 11.5855 14.4457 12.9248 13 13.3551ZM15 4H5V20H19V8H15V4ZM3 2.9918C3 2.44405 3.44749 2 3.9985 2H16L20.9997 7L21 20.9925C21 21.5489 20.5551 22 20.0066 22H3.9934C3.44476 22 3 21.5447 3 21.0082V2.9918Z"/></svg>

<svg xmlns="http://www.w3.org/2000/svg" viewBox="0 0 24 24" fill="currentColor">
    <g>
        <path fill="none" d="M0 0h24v24H0z"/>
        <path fill-rule="nonzero" d="M11 15h2v2h-2v-2zm2-1.645V14h-2v-1.5a1 1 0 0 1 1-1 1.5 1.5 0 1 0-1.471-1.794l-1.962-.393A3.501 3.501 0 1 1 13 13.355zM15 4H5v16h14V8h-4V4zM3 2.992C3 2.444 3.447 2 3.999 2H16l5 5v13.993A1 1 0 0 1 20.007 22H3.993A1 1 0 0 1 3 21.008V2.992z"/>
    </g>
</svg>
